X: 43342
T: Worn Torn Petticoat, The
R: slide
M: 12/8
K: Adorian
|:c3 BAG A2G E2D|EFG A2B c2d e2d|
c3 ~B3 A2G E2D|1 EFG c2B A2E A2B:|2 EFG c2B A3 ABA||
c2d e2f g2e d2g|e2a agf g2e d2B|
c2d e2f g2e d2g|efg c'2b a3 age|
c2d e2f g2e d2g|e2a agf g2e d2B|
c2B ABc B2A G2D|EFG c2B A3 A2B||

